X: 109
T: Miss Sayer's Allemand
M:2/4
L:1/8
Q:160
S:Playford
O:Manuscript
A:English
K:F
c|aa aa|a3 b|agfe f/2e/2f/2g/2 f>c|aa a3 b|agfr|f3:|
|:A2 FC|B2 G2|cB/2c/2 d g| f2 e2| A2 FC|B2 GB|AGFE| F4:|

